packages/match-icons/sendgrid/svg/email.svg

<svg fill="none" height="32" viewBox="0 0 32 32" width="32" xmlns="http://www.w3.org/2000/svg"><g stroke="#394762" stroke-linecap="round" stroke-linejoin="round" stroke-width="1.7"><path d="m26 17.1733v-14.1733c0-.53043-.2107-1.03914-.5858-1.41421-.3751-.37508-.8838-.58579-1.4142-.58579h-16c-.53043 0-1.03914.21071-1.41421.58579-.37508.37507-.58579.88378-.58579 1.41421v14.1733"/><path d="m28.3787 15.2866c.1472-.1167.3244-.1896.5112-.2103s.3756.0116.5448.0933c.1693.0817.3121.2095.412.3686.1.1591.1531.3432.1533.5311v12.9333c0 .5305-.2107 1.0392-.5858 1.4143-.3751.375-.8838.5857-1.4142.5857h-24c-.53043 0-1.03914-.2107-1.41421-.5857-.37508-.3751-.58579-.8838-.58579-1.4143v-12.9333c.00017-.1879.05328-.372.15326-.5311s.24277-.2869.41201-.3686.35808-.114.54486-.0933.36395.0936.5112.2103l9.90797 7.8587c.7047.5534 1.5747.8543 2.4707.8543s1.766-.3009 2.4707-.8543z"/><path d="m18 16.6587c-1.2007.4245-2.5054.4559-3.7252.0897s-2.2914-1.111-3.0598-2.1267-1.1936-2.2495-1.2142-3.5229c-.0206-1.27342.3646-2.52035 1.0997-3.56033.7351-1.03999 1.7821-1.81907 2.9895-2.2245 1.2073-.40543 2.5123-.41617 3.7261-.03067 1.2139.3855 2.2736 1.14724 3.0257 2.17498.7522 1.02774 1.1578 2.26816 1.1582 3.54172"/><path d="m14 11c0 .5304.2107 1.0391.5858 1.4142s.8838.5858 1.4142.5858 1.0391-.2107 1.4142-.5858.5858-.8838.5858-1.4142-.2107-1.03914-.5858-1.41421c-.3751-.37508-.8838-.58579-1.4142-.58579s-1.0391.21071-1.4142.58579c-.3751.37507-.5858.88381-.5858 1.41421z"/><path d="m18 11c0 .5304.2107 1.0391.5858 1.4142s.8838.5858 1.4142.5858 1.0391-.2107 1.4142-.5858.5858-.8838.5858-1.4142"/></g></svg>

<svg width="32" height="32" viewBox="0 0 32 32" fill="none" xmlns="http://www.w3.org/2000/svg">
<path d="M26 17.1733V3C26 2.46957 25.7893 1.96086 25.4142 1.58579C25.0391 1.21071 24.5304 1 24 1H8C7.46957 1 6.96086 1.21071 6.58579 1.58579C6.21071 1.96086 6 2.46957 6 3V17.1733" stroke="#394762" stroke-width="1.7" stroke-linecap="round" stroke-linejoin="round"/>
<path d="M28.3787 15.2866C28.5259 15.1699 28.7031 15.097 28.8899 15.0763C29.0767 15.0556 29.2655 15.0879 29.4347 15.1696C29.604 15.2513 29.7468 15.3791 29.8467 15.5382C29.9467 15.6973 29.9998 15.8814 30 16.0693V29.0026C30 29.5331 29.7893 30.0418 29.4142 30.4169C29.0391 30.7919 28.5304 31.0026 28 31.0026H4C3.46957 31.0026 2.96086 30.7919 2.58579 30.4169C2.21071 30.0418 2 29.5331 2 29.0026V16.0693C2.00017 15.8814 2.05328 15.6973 2.15326 15.5382C2.25324 15.3791 2.39603 15.2513 2.56527 15.1696C2.73451 15.0879 2.92335 15.0556 3.11013 15.0763C3.29691 15.097 3.47408 15.1699 3.62133 15.2866L13.5293 23.1453C14.234 23.6987 15.104 23.9996 16 23.9996C16.896 23.9996 17.766 23.6987 18.4707 23.1453L28.3787 15.2866Z" stroke="#394762" stroke-width="1.7" stroke-linecap="round" stroke-linejoin="round"/>
<path d="M18 16.6587C16.7993 17.0832 15.4946 17.1146 14.2748 16.7484C13.055 16.3822 11.9834 15.6374 11.215 14.6217C10.4466 13.606 10.0214 12.3722 10.0008 11.0988C9.9802 9.82538 10.3654 8.57845 11.1005 7.53847C11.8356 6.49848 12.8826 5.7194 14.09 5.31397C15.2973 4.90854 16.6023 4.8978 17.8161 5.2833C19.03 5.6688 20.0897 6.43054 20.8418 7.45828C21.594 8.48602 21.9996 9.72644 22 11" stroke="#394762" stroke-width="1.7" stroke-linecap="round" stroke-linejoin="round"/>
<path d="M14 11C14 11.5304 14.2107 12.0391 14.5858 12.4142C14.9609 12.7893 15.4696 13 16 13C16.5304 13 17.0391 12.7893 17.4142 12.4142C17.7893 12.0391 18 11.5304 18 11C18 10.4696 17.7893 9.96086 17.4142 9.58579C17.0391 9.21071 16.5304 9 16 9C15.4696 9 14.9609 9.21071 14.5858 9.58579C14.2107 9.96086 14 10.4696 14 11V11Z" stroke="#394762" stroke-width="1.7" stroke-linecap="round" stroke-linejoin="round"/>
<path d="M18 11C18 11.5304 18.2107 12.0391 18.5858 12.4142C18.9609 12.7893 19.4696 13 20 13C20.5304 13 21.0391 12.7893 21.4142 12.4142C21.7893 12.0391 22 11.5304 22 11" stroke="#394762" stroke-width="1.7" stroke-linecap="round" stroke-linejoin="round"/>
</svg>
